src/assets/svgs/stars.svg

<svg width="91" height="15" viewBox="0 0 91 15" fill="none" xmlns="http://www.w3.org/2000/svg">
<path d="M90.5 5.5675C90.5 5.25425 90.2457 5 89.9325 5H85.5L84.034 0.877C83.9535 0.651 83.7397 0.5 83.5 0.5C83.2603 0.5 83.0465 0.651 82.966 0.877L81.5 5H77.0675C76.7542 5 76.5 5.25425 76.5 5.5675C76.5 5.736 76.5747 5.89575 76.704 6.0035L80 8.75L78.5227 13.7823C78.5077 13.8335 78.5 13.8865 78.5 13.94C78.5 14.2492 78.751 14.5 79.0605 14.5C79.1832 14.5 79.303 14.4595 79.4005 14.3848L83.5 11.25L87.5992 14.3848C87.697 14.4595 87.8167 14.5 87.9395 14.5C88.249 14.5 88.5 14.2492 88.5 13.94C88.5 13.8865 88.4923 13.8335 88.4773 13.7823L87 8.75L90.296 6.0035C90.4252 5.89575 90.5 5.73575 90.5 5.5675Z" fill="#F47D4E"/>
<path d="M71.5 5.5675C71.5 5.25425 71.2457 5 70.9325 5H66.5L65.034 0.877C64.9535 0.651 64.7397 0.5 64.5 0.5C64.2603 0.5 64.0465 0.651 63.966 0.877L62.5 5H58.0675C57.7542 5 57.5 5.25425 57.5 5.5675C57.5 5.736 57.5747 5.89575 57.704 6.0035L61 8.75L59.5227 13.7823C59.5077 13.8335 59.5 13.8865 59.5 13.94C59.5 14.2492 59.751 14.5 60.0605 14.5C60.1832 14.5 60.303 14.4595 60.4005 14.3848L64.5 11.25L68.5992 14.3848C68.697 14.4595 68.8167 14.5 68.9395 14.5C69.249 14.5 69.5 14.2492 69.5 13.94C69.5 13.8865 69.4923 13.8335 69.4773 13.7823L68 8.75L71.296 6.0035C71.4252 5.89575 71.5 5.73575 71.5 5.5675Z" fill="#F47D4E"/>
<path d="M52.5 5.5675C52.5 5.25425 52.2457 5 51.9325 5H47.5L46.034 0.877C45.9535 0.651 45.7397 0.5 45.5 0.5C45.2603 0.5 45.0465 0.651 44.966 0.877L43.5 5H39.0675C38.7542 5 38.5 5.25425 38.5 5.5675C38.5 5.736 38.5747 5.89575 38.704 6.0035L42 8.75L40.5227 13.7823C40.5077 13.8335 40.5 13.8865 40.5 13.94C40.5 14.2492 40.751 14.5 41.0605 14.5C41.1832 14.5 41.303 14.4595 41.4005 14.3848L45.5 11.25L49.5992 14.3848C49.697 14.4595 49.8167 14.5 49.9395 14.5C50.249 14.5 50.5 14.2492 50.5 13.94C50.5 13.8865 50.4923 13.8335 50.4773 13.7823L49 8.75L52.296 6.0035C52.4252 5.89575 52.5 5.73575 52.5 5.5675Z" fill="#F47D4E"/>
<path d="M33.5 5.5675C33.5 5.25425 33.2457 5 32.9325 5H28.5L27.034 0.877C26.9535 0.651 26.7397 0.5 26.5 0.5C26.2603 0.5 26.0465 0.651 25.966 0.877L24.5 5H20.0675C19.7542 5 19.5 5.25425 19.5 5.5675C19.5 5.736 19.5747 5.89575 19.704 6.0035L23 8.75L21.5227 13.7823C21.5077 13.8335 21.5 13.8865 21.5 13.94C21.5 14.2492 21.751 14.5 22.0605 14.5C22.1832 14.5 22.303 14.4595 22.4005 14.3848L26.5 11.25L30.5992 14.3848C30.697 14.4595 30.8167 14.5 30.9395 14.5C31.249 14.5 31.5 14.2492 31.5 13.94C31.5 13.8865 31.4923 13.8335 31.4773 13.7823L30 8.75L33.296 6.0035C33.4252 5.89575 33.5 5.73575 33.5 5.5675Z" fill="#F47D4E"/>
<path d="M14.5 5.5675C14.5 5.25425 14.2457 5 13.9325 5H9.5L8.034 0.877C7.9535 0.651 7.73975 0.5 7.5 0.5C7.26025 0.5 7.0465 0.651 6.966 0.877L5.5 5H1.0675C0.75425 5 0.5 5.25425 0.5 5.5675C0.5 5.736 0.57475 5.89575 0.704 6.0035L4 8.75L2.52275 13.7823C2.50775 13.8335 2.5 13.8865 2.5 13.94C2.5 14.2492 2.751 14.5 3.0605 14.5C3.18325 14.5 3.303 14.4595 3.4005 14.3848L7.5 11.25L11.5992 14.3848C11.697 14.4595 11.8167 14.5 11.9395 14.5C12.249 14.5 12.5 14.2492 12.5 13.94C12.5 13.8865 12.4923 13.8335 12.4773 13.7823L11 8.75L14.296 6.0035C14.4252 5.89575 14.5 5.73575 14.5 5.5675Z" fill="#F47D4E"/>
</svg>

<svg width="91" height="15" fill="none" xmlns="http://www.w3.org/2000/svg"><path d="M90.5 5.567A.568.568 0 0 0 89.933 5H85.5L84.034.877a.567.567 0 0 0-1.068 0L81.5 5h-4.433a.568.568 0 0 0-.363 1.003L80 8.75l-1.477 5.032a.56.56 0 0 0 .877.603l4.1-3.135 4.1 3.135a.561.561 0 0 0 .877-.603L87 8.75l3.296-2.747a.568.568 0 0 0 .204-.436ZM71.5 5.567A.568.568 0 0 0 70.933 5H66.5L65.034.877a.567.567 0 0 0-1.068 0L62.5 5h-4.432a.568.568 0 0 0-.364 1.003L61 8.75l-1.477 5.032a.56.56 0 0 0 .877.603l4.1-3.135 4.1 3.135a.561.561 0 0 0 .877-.603L68 8.75l3.296-2.747a.568.568 0 0 0 .204-.436ZM52.5 5.567A.568.568 0 0 0 51.932 5H47.5L46.034.877a.567.567 0 0 0-1.068 0L43.5 5h-4.432a.568.568 0 0 0-.364 1.003L42 8.75l-1.477 5.032a.56.56 0 0 0 .877.603l4.1-3.135 4.1 3.135a.561.561 0 0 0 .877-.603L49 8.75l3.296-2.747a.568.568 0 0 0 .204-.436ZM33.5 5.567A.568.568 0 0 0 32.932 5H28.5L27.034.877a.567.567 0 0 0-1.068 0L24.5 5h-4.433a.568.568 0 0 0-.363 1.003L23 8.75l-1.477 5.032a.56.56 0 0 0 .878.603L26.5 11.25l4.1 3.135a.561.561 0 0 0 .877-.603L30 8.75l3.296-2.747a.568.568 0 0 0 .204-.436ZM14.5 5.567A.568.568 0 0 0 13.932 5H9.5L8.034.877a.567.567 0 0 0-1.068 0L5.5 5H1.067a.568.568 0 0 0-.363 1.003L4 8.75l-1.477 5.032a.56.56 0 0 0 .877.603l4.1-3.135 4.1 3.135a.561.561 0 0 0 .877-.603L11 8.75l3.296-2.747a.568.568 0 0 0 .204-.436Z" fill="#F47D4E"/></svg>
